X: 14
M:3/4
L:1/8
K:G
"Andante moderato"G>A|B2 B2 B3/2c/4d/4|B3 A (3BAG|{^d}e2 A2 A3/2B/4c/4|{B}A4 G>A|
=fe fa gf|e3 d B/4d/4g|ed cB AG|A4 G>A|

